X: 19953
T: Jigging In The Bed
R: reel
M: 4/4
K: Cmajor
|:EF|GC C/D/C GCEG|F/G/F DC B,D G,2|G,CEG F2 dc|BcdB G/A/G FD|
EC C/D/C G,CEG|F/G/F DC B,D G,2|G,CEG F2 dc|BGFD C2:|
|:EF|Gccd ecdc|BGGF DE F/G/F|Gccd eGce|dGBd c/d/c cd|
eccd ecdc|BGGF DE F/G/F|EC C/C/C G,C C/C/C|EGFD C2:|

